apps/service-portal/src/assets/images/health.svg

<svg width="61" height="73" viewBox="0 0 61 73" fill="none" xmlns="http://www.w3.org/2000/svg">
<path d="M32.3553 29.0585C32.3481 29.0585 32.3409 29.0585 32.3337 29.0585C32.2209 29.0513 20.9609 28.2549 20.9609 19.0987V7.11662C20.9609 5.17359 22.5418 3.59277 24.4848 3.59277H27.584C27.7831 3.59277 27.9439 3.75349 27.9439 3.95259C27.9439 4.1517 27.7831 4.31242 27.584 4.31242H24.4848C22.9376 4.31242 21.6806 5.56939 21.6806 7.11662V19.0963C21.6806 22.6393 23.4605 25.2684 26.9724 26.9092C29.6374 28.1542 32.3505 28.3365 32.3769 28.3389C32.576 28.3509 32.7271 28.5212 32.7127 28.7203C32.7031 28.9122 32.5448 29.0585 32.3553 29.0585Z" fill="#6A2EA0"/>
<path d="M33.6163 29.0585C33.4268 29.0585 33.2685 28.9122 33.2565 28.7203C33.2445 28.5212 33.3957 28.3509 33.5924 28.3389C33.6187 28.3365 36.3318 28.1566 38.9969 26.9092C42.5087 25.2684 44.2887 22.6393 44.2887 19.0963V7.11663C44.2887 5.57179 43.0317 4.31242 41.4845 4.31242H38.3852C38.1861 4.31242 38.0254 4.1517 38.0254 3.95259C38.0254 3.75349 38.1861 3.59277 38.3852 3.59277H41.4845C43.4275 3.59277 45.0083 5.17359 45.0083 7.11663V19.0963C45.0083 28.2525 33.7507 29.0489 33.6355 29.0561C33.6331 29.0585 33.6235 29.0585 33.6163 29.0585Z" fill="#6A2EA0"/>
<path d="M44.1019 50.2331C37.6682 50.2331 32.4316 44.9989 32.4316 38.5629V31.2873C32.4316 31.0882 32.5924 30.9275 32.7915 30.9275C32.9906 30.9275 33.1513 31.0882 33.1513 31.2873V38.5629C33.1513 44.6007 38.064 49.5135 44.1019 49.5135C50.1397 49.5135 55.0524 44.6007 55.0524 38.5629V23.3833C55.0524 23.1842 55.2131 23.0234 55.4122 23.0234C55.6113 23.0234 55.7721 23.1842 55.7721 23.3833V38.5629C55.7721 44.9965 50.5355 50.2331 44.1019 50.2331Z" fill="#6A2EA0"/>
<path d="M55.4118 26.5062C52.8379 26.5062 50.7461 24.412 50.7461 21.8405C50.7461 19.2666 52.8403 17.1748 55.4118 17.1748C57.9833 17.1748 60.0775 19.269 60.0775 21.8405C60.0775 24.412 57.9833 26.5062 55.4118 26.5062ZM55.4118 17.8944C53.2361 17.8944 51.4657 19.6648 51.4657 21.8405C51.4657 24.0162 53.2361 25.7865 55.4118 25.7865C57.5875 25.7865 59.3578 24.0162 59.3578 21.8405C59.3578 19.6648 57.5875 17.8944 55.4118 17.8944Z" fill="#6A2EA0"/>
<path d="M15.0282 18.2215C15.8205 18.2215 16.4627 17.5793 16.4627 16.787C16.4627 15.9948 15.8205 15.3525 15.0282 15.3525C14.236 15.3525 13.5938 15.9948 13.5938 16.787C13.5938 17.5793 14.236 18.2215 15.0282 18.2215Z" fill="#0061FF"/>
<path d="M26.968 68.5387C26.7689 68.5387 26.6082 68.378 26.6082 68.1789V40.2448C26.6082 38.2658 24.9986 36.6562 23.0196 36.6562H7.09147C5.11245 36.6562 3.50285 38.2658 3.50285 40.2448V46.8607C3.50285 47.0598 3.34213 47.2205 3.14302 47.2205C2.94392 47.2205 2.7832 47.0598 2.7832 46.8607V40.2448C2.7832 37.87 4.71664 35.9365 7.09147 35.9365H23.0196C25.3944 35.9365 27.3278 37.87 27.3278 40.2448V68.1813C27.3278 68.378 27.1671 68.5387 26.968 68.5387Z" fill="#6A2EA0"/>
<path d="M19.2603 47.2997H0.484821C0.28572 47.2997 0.125 47.139 0.125 46.9399C0.125 46.7408 0.28572 46.5801 0.484821 46.5801H19.2603C19.4594 46.5801 19.6201 46.7408 19.6201 46.9399C19.6201 47.139 19.4594 47.2997 19.2603 47.2997Z" fill="#6A2EA0"/>
<path d="M22.6202 51.3652H9.40279C9.20369 51.3652 9.04297 51.2044 9.04297 51.0053C9.04297 50.8062 9.20369 50.6455 9.40279 50.6455H22.6226C22.8217 50.6455 22.9824 50.8062 22.9824 51.0053C22.9824 51.2044 22.8193 51.3652 22.6202 51.3652Z" fill="#6A2EA0"/>
<path d="M19.2603 55.8778H6.56099C6.36189 55.8778 6.20117 55.7171 6.20117 55.518C6.20117 55.3189 6.36189 55.1582 6.56099 55.1582H19.2603C19.4594 55.1582 19.6201 55.3189 19.6201 55.518C19.6201 55.7171 19.4594 55.8778 19.2603 55.8778Z" fill="#6A2EA0"/>
<path d="M12.1909 68.5381H6.75759C2.83073 68.5381 2.78516 64.6952 2.78516 64.6544V55.6733C2.78516 55.4742 2.94588 55.3135 3.14498 55.3135C3.34408 55.3135 3.5048 55.4742 3.5048 55.6733V64.6544C3.5048 64.784 3.55517 67.8185 6.75759 67.8185H12.1909C12.39 67.8185 12.5507 67.9792 12.5507 68.1783C12.5507 68.3774 12.39 68.5381 12.1909 68.5381Z" fill="#6A2EA0"/>
<path d="M27.7722 6.04222H27.7051V1.93066H27.7722C28.9069 1.93066 29.828 2.85181 29.828 3.98644C29.828 5.12108 28.9069 6.04222 27.7722 6.04222ZM32.7929 26.1107C31.3632 26.1107 30.2046 27.2693 30.2046 28.699C30.2046 30.1287 31.3632 31.2873 32.7929 31.2873C34.2226 31.2873 35.3812 30.1287 35.3812 28.699C35.3836 27.2693 34.225 26.1107 32.7929 26.1107ZM38.2046 6.04222H38.2718V1.93066H38.2046C37.07 1.93066 36.1489 2.85181 36.1489 3.98644C36.1489 5.12108 37.07 6.04222 38.2046 6.04222ZM55.4137 16.3931C53.4803 16.3931 51.9138 17.9595 51.9138 19.893C51.9138 21.8264 53.4803 23.3928 55.4137 23.3928C57.3471 23.3928 58.9136 21.8264 58.9136 19.893C58.9136 17.9595 57.3447 16.3931 55.4137 16.3931ZM21.3122 36.6079C21.3122 37.4882 20.5974 38.2031 19.717 38.2031H10.6831C9.80274 38.2031 9.08789 37.4882 9.08789 36.6079C9.08789 35.7275 9.80274 35.0126 10.6831 35.0126H13.1659C13.1731 35.0126 13.1755 35.0055 13.1731 35.0007C12.9308 34.6384 12.7917 34.2042 12.7917 33.7365C12.7917 32.5419 13.7104 31.5632 14.881 31.4672C16.2124 31.3569 17.3806 32.4603 17.347 33.7964C17.335 34.2402 17.1959 34.6552 16.9656 35.0007C16.9632 35.0055 16.9656 35.0126 16.9728 35.0126H19.7218C20.5974 35.015 21.3122 35.7275 21.3122 36.6079ZM16.3323 33.6525C16.3323 32.9737 15.783 32.4243 15.1041 32.4243C14.4252 32.4243 13.8759 32.9737 13.8759 33.6525C13.8759 34.3314 14.4252 34.8807 15.1041 34.8807C15.783 34.8807 16.3323 34.3314 16.3323 33.6525ZM25.5029 68.229C25.5029 70.7981 23.4208 72.8802 20.8517 72.8802C18.2825 72.8802 16.2004 70.7981 16.2004 68.229C16.2004 65.6598 18.2825 63.5777 20.8517 63.5777C23.4208 63.5777 25.5029 65.6598 25.5029 68.229ZM23.308 67.5597H21.4825V65.7342H20.0912V67.5597H18.2657V68.951H20.0912V70.7765H21.4825V68.951H23.308V67.5597Z" fill="url(#paint0_linear)"/>
<path d="M27.7036 7.03304C27.5045 7.03304 27.3438 6.87232 27.3438 6.67322V1.19674C27.3438 0.997634 27.5045 0.836914 27.7036 0.836914C27.9027 0.836914 28.0634 0.997634 28.0634 1.19674V6.67322C28.0634 6.87232 27.9003 7.03304 27.7036 7.03304Z" fill="#6A2EA0"/>
<path d="M38.27 7.03304C38.0709 7.03304 37.9102 6.87232 37.9102 6.67322V1.19674C37.9102 0.997634 38.0709 0.836914 38.27 0.836914C38.4691 0.836914 38.6298 0.997634 38.6298 1.19674V6.67322C38.6298 6.87232 38.4691 7.03304 38.27 7.03304Z" fill="#6A2EA0"/>
<defs>
<linearGradient id="paint0_linear" x1="9.08883" y1="37.4059" x2="58.9131" y2="37.4059" gradientUnits="userSpaceOnUse">
<stop stop-color="#FF4C84"/>
<stop offset="0.603" stop-color="#9176D0"/>
<stop offset="1" stop-color="#4C90FF"/>
</linearGradient>
</defs>
</svg>

<svg width="61" height="73" fill="none" xmlns="http://www.w3.org/2000/svg"><path d="M32.355 29.058h-.021c-.113-.007-11.373-.803-11.373-9.96V7.118a3.528 3.528 0 0 1 3.524-3.524h3.099a.36.36 0 1 1 0 .72h-3.1a2.806 2.806 0 0 0-2.803 2.804v11.98c0 3.542 1.78 6.171 5.291 7.812 2.665 1.245 5.378 1.428 5.405 1.43.199.012.35.182.336.381a.356.356 0 0 1-.358.338ZM33.616 29.058a.36.36 0 0 1-.024-.72c.027-.002 2.74-.181 5.405-1.429 3.512-1.64 5.292-4.27 5.292-7.813V7.116a2.808 2.808 0 0 0-2.805-2.804h-3.099a.36.36 0 1 1 0-.72h3.1a3.528 3.528 0 0 1 3.523 3.525v11.98c0 9.155-11.257 9.952-11.373 9.96-.002.002-.011.002-.019.002Z" fill="#6A2EA0"/><path d="M44.102 50.233c-6.434 0-11.67-5.234-11.67-11.67v-7.276a.36.36 0 1 1 .72 0v7.276c0 6.038 4.912 10.95 10.95 10.95 6.038 0 10.95-4.912 10.95-10.95v-15.18a.36.36 0 1 1 .72 0v15.18c0 6.433-5.236 11.67-11.67 11.67Z" fill="#6A2EA0"/><path d="M55.412 26.506a4.671 4.671 0 0 1-4.666-4.666 4.671 4.671 0 0 1 4.666-4.665 4.672 4.672 0 0 1 4.666 4.665 4.672 4.672 0 0 1-4.666 4.666Zm0-8.612a3.95 3.95 0 0 0-3.946 3.947 3.95 3.95 0 0 0 3.946 3.945 3.95 3.95 0 0 0 3.946-3.946 3.95 3.95 0 0 0-3.946-3.946Z" fill="#6A2EA0"/><path d="M15.028 18.221a1.434 1.434 0 1 0 0-2.868 1.434 1.434 0 0 0 0 2.868Z" fill="#0061FF"/><path d="M26.968 68.539a.36.36 0 0 1-.36-.36V40.245a3.592 3.592 0 0 0-3.588-3.589H7.09a3.592 3.592 0 0 0-3.588 3.589v6.616a.36.36 0 1 1-.72 0v-6.616a4.314 4.314 0 0 1 4.308-4.308H23.02a4.314 4.314 0 0 1 4.308 4.308V68.18c0 .197-.16.358-.36.358Z" fill="#6A2EA0"/><path d="M19.26 47.3H.485a.36.36 0 1 1 0-.72H19.26a.36.36 0 1 1 0 .72ZM22.62 51.365H9.403a.36.36 0 1 1 0-.72h13.22a.36.36 0 1 1-.003.72ZM19.26 55.878H6.561a.36.36 0 1 1 0-.72h12.7a.36.36 0 1 1 0 .72ZM12.19 68.538H6.759c-3.927 0-3.973-3.843-3.973-3.884v-8.98a.36.36 0 1 1 .72 0v8.98c0 .13.05 3.165 3.253 3.165h5.433a.36.36 0 1 1 0 .72Z" fill="#6A2EA0"/><path d="M27.772 6.042h-.067V1.931h.067a2.057 2.057 0 0 1 0 4.111Zm5.02 20.069a2.588 2.588 0 1 0 0 5.176 2.588 2.588 0 0 0 0-5.176Zm5.413-20.069h.067V1.931h-.067a2.057 2.057 0 0 0 0 4.111Zm17.209 10.351a3.5 3.5 0 1 0 0 7 3.5 3.5 0 1 0 0-7ZM21.312 36.608c0 .88-.715 1.595-1.595 1.595h-9.034a1.596 1.596 0 0 1 0-3.19h2.483c.007 0 .01-.008.007-.012a2.277 2.277 0 0 1 1.708-3.534c1.331-.11 2.5.993 2.466 2.33A2.281 2.281 0 0 1 16.966 35c-.003.005 0 .012.007.012h2.749c.875.002 1.59.715 1.59 1.595Zm-4.98-2.955a1.228 1.228 0 1 0-2.455-.002 1.228 1.228 0 0 0 2.455.002Zm9.17 34.576a4.65 4.65 0 1 1-9.3 0 4.65 4.65 0 0 1 9.3 0Zm-2.194-.67h-1.825v-1.825H20.09v1.826h-1.825v1.391h1.825v1.826h1.392V68.95h1.825V67.56Z" fill="url(#a)"/><path d="M27.704 7.033a.36.36 0 0 1-.36-.36V1.197a.36.36 0 1 1 .72 0v5.476c0 .2-.164.36-.36.36ZM38.27 7.033a.36.36 0 0 1-.36-.36V1.197a.36.36 0 1 1 .72 0v5.476c0 .2-.16.36-.36.36Z" fill="#6A2EA0"/><defs><linearGradient id="a" x1="9.089" y1="37.406" x2="58.913" y2="37.406" gradientUnits="userSpaceOnUse"><stop stop-color="#FF4C84"/><stop offset=".603" stop-color="#9176D0"/><stop offset="1" stop-color="#4C90FF"/></linearGradient></defs></svg>
